src/assets/duotone/ArrowCircleDown.svg

<svg width="24" height="24" viewBox="0 0 24 24"  xmlns="http://www.w3.org/2000/svg">
<path opacity="0.4" d="M12 22C17.5228 22 22 17.5228 22 12C22 6.47715 17.5228 2 12 2C6.47715 2 2 6.47715 2 12C2 17.5228 6.47715 22 12 22Z" />
<path d="M12.0002 15.0099C11.8102 15.0099 11.6202 14.9399 11.4702 14.7899L7.94016 11.2599C7.65016 10.9699 7.65016 10.4899 7.94016 10.1999C8.23016 9.90992 8.71016 9.90992 9.00016 10.1999L12.0002 13.1999L15.0002 10.1999C15.2902 9.90992 15.7702 9.90992 16.0602 10.1999C16.3502 10.4899 16.3502 10.9699 16.0602 11.2599L12.5302 14.7899C12.3802 14.9399 12.1902 15.0099 12.0002 15.0099Z" />
</svg>

<?xml version="1.0" encoding="UTF-8"?>
<svg width="24" height="24" viewBox="0 0 24 24" xmlns="http://www.w3.org/2000/svg">
 <path d="m12 22c5.5228 0 10-4.4772 10-10 0-5.5228-4.4772-10-10-10-5.5228 0-10 4.4772-10 10 0 5.5228 4.4772 10 10 10z" opacity=".4"/>
 <path d="m12 15.01c-0.19 0-0.38-0.07-0.53-0.22l-3.53-3.53c-0.29-0.29-0.29-0.77 0-1.06 0.29-0.28998 0.77-0.28998 1.06 0l3 3 3-3c0.29-0.28998 0.77-0.28998 1.06 0 0.29 0.29 0.29 0.77 0 1.06l-3.53 3.53c-0.15 0.15-0.34 0.22-0.53 0.22z"/>
</svg>
